X: 57
T: No_61_Song_of_Rabbit_Dance_(b).krn
N: Derived from No_61_Song_of_Rabbit_Dance_(b).krn
%%abc-version 2.0
%%abcx-abcm2ps-target-version 5.9.1 (29 Sep 2008)
%%abc-creator hum2abc beta
%%abcx-conversion-date 2019/03/15 08:27:55
%%humdrum-veritas 2228832222
%%humdrum-veritas-data 1497025653
%%linebreak <none>
%%barnumbers 0
L: 1/8
M: 2/4
%%staves {1 2}
V: 1 clef=bass
V: 2 clef=bass
K: Ab
[V:1] [K:clef=bass][M:2/4]z2A,A, | 
[V:2] [K:clef=bass][M:2/4](3G,, z G,, (3G,, z G,, | 
[V:1] EEE2 | 
[V:2] z4 | 
[V:1] E/ z/ C C/ z/ B, | 
[V:2] z4 | 
[V:1] [M:3/4](C/A,/)A, A, z A,A, | 
[V:2] [M:3/4]z6 | 
[V:1] [M:2/4]EEE2 ]|:  
[V:2] [M:2/4]z4 ]|:  
[V:1] E/ z/ C C/ z/ B, | 
[V:2] z4 | 
[V:1] E/ z/ A, A,/A,/F, | 
[V:2] z4 | 
[V:1] E,/E,3/ C,E, | 
[V:2] z4 | 
[V:1] E,E, E, z | 
[V:2] z4 | 
[V:1] A,2A,/F,/F, | 
[V:2] z4 | 
[V:1] E,/E,3/ C,E, | 
[V:2] z4 | 
[V:1] E,E, E, z | 
[V:2] z4 | 
[V:1] F,/E,3/E,2 | 
[V:2] z4 | 
[V:1] F,/E,3/E,2 | 
[V:2] z4 | 
[V:1] E,/E,3/z2 :|]  
[V:2] z4 :|]  



